src/assets/Burger.svg

<svg fill="none" height="24" viewBox="0 0 39 24" width="39" xmlns="http://www.w3.org/2000/svg"><path clip-rule="evenodd" d="m.600098 1.8c0-.47739.189642-.935227.527212-1.272792.33756-.337566.7954-.527208 1.27279-.527208h34.8c.4774 0 .9352.189642 1.2728.527208.3376.337565.5272.795402.5272 1.272792s-.1896.93523-.5272 1.27279c-.3376.33757-.7954.52721-1.2728.52721h-34.8c-.47739 0-.93523-.18964-1.27279-.52721-.33757-.33756-.527212-.7954-.527212-1.27279zm0 10.2c0-.4774.189642-.9352.527212-1.2728.33756-.3376.7954-.5272 1.27279-.5272h34.8c.4774 0 .9352.1896 1.2728.5272s.5272.7954.5272 1.2728-.1896.9352-.5272 1.2728-.7954.5272-1.2728.5272h-34.8c-.47739 0-.93523-.1896-1.27279-.5272-.33757-.3376-.527212-.7954-.527212-1.2728zm1.800002 8.4c-.47739 0-.93523.1896-1.27279.5272-.33757.3376-.527212.7954-.527212 1.2728s.189642.9352.527212 1.2728c.33756.3376.7954.5272 1.27279.5272h34.8c.4774 0 .9352-.1896 1.2728-.5272s.5272-.7954.5272-1.2728-.1896-.9352-.5272-1.2728-.7954-.5272-1.2728-.5272z" fill="#fff" fill-rule="evenodd"/></svg>

<svg width="39" height="24" viewBox="0 0 39 24" fill="none" xmlns="http://www.w3.org/2000/svg">
<path fill-rule="evenodd" clip-rule="evenodd" d="M0.600098 1.8C0.600098 1.32261 0.78974 0.864773 1.12731 0.527208C1.46487 0.189642 1.92271 0 2.4001 0H37.2001C37.6775 0 38.1353 0.189642 38.4729 0.527208C38.8105 0.864773 39.0001 1.32261 39.0001 1.8C39.0001 2.27739 38.8105 2.73523 38.4729 3.07279C38.1353 3.41036 37.6775 3.6 37.2001 3.6H2.4001C1.92271 3.6 1.46487 3.41036 1.12731 3.07279C0.78974 2.73523 0.600098 2.27739 0.600098 1.8ZM0.600098 12C0.600098 11.5226 0.78974 11.0648 1.12731 10.7272C1.46487 10.3896 1.92271 10.2 2.4001 10.2H37.2001C37.6775 10.2 38.1353 10.3896 38.4729 10.7272C38.8105 11.0648 39.0001 11.5226 39.0001 12C39.0001 12.4774 38.8105 12.9352 38.4729 13.2728C38.1353 13.6104 37.6775 13.8 37.2001 13.8H2.4001C1.92271 13.8 1.46487 13.6104 1.12731 13.2728C0.78974 12.9352 0.600098 12.4774 0.600098 12ZM2.4001 20.4C1.92271 20.4 1.46487 20.5896 1.12731 20.9272C0.78974 21.2648 0.600098 21.7226 0.600098 22.2C0.600098 22.6774 0.78974 23.1352 1.12731 23.4728C1.46487 23.8104 1.92271 24 2.4001 24H37.2001C37.6775 24 38.1353 23.8104 38.4729 23.4728C38.8105 23.1352 39.0001 22.6774 39.0001 22.2C39.0001 21.7226 38.8105 21.2648 38.4729 20.9272C38.1353 20.5896 37.6775 20.4 37.2001 20.4H2.4001Z" fill="white"/>
</svg>
